48x48/apps/lastpass.svg

<svg viewBox="0 0 48 48"><defs><linearGradient id="linearGradient3764" x1="1" x2="47" gradientUnits="userSpaceOnUse" gradientTransform="matrix(0,-1,1,0,-1.5e-6,47.999998)"><stop stop-color="#ac002d" stop-opacity="1"/><stop offset="1" stop-color="#c00033" stop-opacity="1"/></linearGradient><clipPath id="clipPath-651467254"><g transform="translate(0,-1004.3622)"><path d="m -24 13 c 0 1.105 -0.672 2 -1.5 2 -0.828 0 -1.5 -0.895 -1.5 -2 0 -1.105 0.672 -2 1.5 -2 0.828 0 1.5 0.895 1.5 2 z" transform="matrix(15.333333,0,0,11.5,414.99999,878.8622)" fill="#1890d0"/></g></clipPath><clipPath id="clipPath-665300815"><g transform="translate(0,-1004.3622)"><path d="m -24 13 c 0 1.105 -0.672 2 -1.5 2 -0.828 0 -1.5 -0.895 -1.5 -2 0 -1.105 0.672 -2 1.5 -2 0.828 0 1.5 0.895 1.5 2 z" transform="matrix(15.333333,0,0,11.5,414.99999,878.8622)" fill="#1890d0"/></g></clipPath></defs><g><path d="m 36.31 5 c 5.859 4.062 9.688 10.831 9.688 18.5 c 0 12.426 -10.07 22.5 -22.5 22.5 c -7.669 0 -14.438 -3.828 -18.5 -9.688 c 1.037 1.822 2.306 3.499 3.781 4.969 c 4.085 3.712 9.514 5.969 15.469 5.969 c 12.703 0 23 -10.298 23 -23 c 0 -5.954 -2.256 -11.384 -5.969 -15.469 c -1.469 -1.475 -3.147 -2.744 -4.969 -3.781 z m 4.969 3.781 c 3.854 4.113 6.219 9.637 6.219 15.719 c 0 12.703 -10.297 23 -23 23 c -6.081 0 -11.606 -2.364 -15.719 -6.219 c 4.16 4.144 9.883 6.719 16.219 6.719 c 12.703 0 23 -10.298 23 -23 c 0 -6.335 -2.575 -12.06 -6.719 -16.219 z" opacity="0.05"/><path d="m 41.28 8.781 c 3.712 4.085 5.969 9.514 5.969 15.469 c 0 12.703 -10.297 23 -23 23 c -5.954 0 -11.384 -2.256 -15.469 -5.969 c 4.113 3.854 9.637 6.219 15.719 6.219 c 12.703 0 23 -10.298 23 -23 c 0 -6.081 -2.364 -11.606 -6.219 -15.719 z" opacity="0.1"/><path d="m 31.25 2.375 c 8.615 3.154 14.75 11.417 14.75 21.13 c 0 12.426 -10.07 22.5 -22.5 22.5 c -9.708 0 -17.971 -6.135 -21.12 -14.75 a 23 23 0 0 0 44.875 -7 a 23 23 0 0 0 -16 -21.875 z" opacity="0.2"/></g><g><path d="m 24 1 c 12.703 0 23 10.297 23 23 c 0 12.703 -10.297 23 -23 23 -12.703 0 -23 -10.297 -23 -23 0 -12.703 10.297 -23 23 -23 z" fill="url(#linearGradient3764)" fill-opacity="1"/></g><g/><g><g clip-path="url(#clipPath-651467254)"><g transform="translate(1,1)"><g opacity="0.1"><!-- color: #c00033 --><g><path d="m 5.664 3.175 c -0.032 0 -1.3 0.751 -1.346 0.799 c -0.026 0.024 -0.021 0.045 0.04 0.146 c 0.668 1.101 1.113 1.861 1.098 1.874 c -0.011 0.009 -0.413 0.007 -0.895 -0.01 c -0.481 -0.015 -0.987 -0.028 -1.122 -0.029 l -0.247 -0.001 l -0.011 0.804 c -0.01 0.472 -0.008 0.812 0.007 0.825 c 0.018 0.021 1.423 -0.011 2 -0.043 c 0.201 -0.011 0.244 -0.011 0.252 0.018 c 0.007 0.018 -0.085 0.191 -0.209 0.402 c -0.121 0.204 -0.38 0.636 -0.579 0.968 c -0.197 0.329 -0.353 0.609 -0.348 0.623 c 0.014 0.034 1.296 0.787 1.348 0.787 c 0.04 0.001 0.332 -0.527 0.999 -1.811 c 0.051 -0.096 0.106 -0.175 0.122 -0.175 c 0.019 0 0.216 0.353 0.506 0.908 c 0.601 1.147 0.584 1.116 0.594 1.116 c 0.004 0 0.148 -0.082 0.313 -0.183 c 0.17 -0.099 0.474 -0.282 0.686 -0.407 c 0.207 -0.123 0.379 -0.234 0.379 -0.245 c 0 -0.011 -0.202 -0.355 -0.442 -0.757 c -0.246 -0.406 -0.507 -0.846 -0.586 -0.978 c -0.079 -0.134 -0.136 -0.249 -0.126 -0.26 c 0.01 -0.011 0.503 -0.004 1.126 0.014 c 0.611 0.018 1.117 0.023 1.127 0.013 c 0.023 -0.022 0.036 -1.615 0.013 -1.627 c -0.01 -0.009 -0.474 0.001 -1.029 0.021 c -1.208 0.039 -1.235 0.04 -1.235 0.01 c 0 -0.013 0.194 -0.345 0.431 -0.74 c 0.707 -1.174 0.742 -1.236 0.732 -1.25 c -0.007 -0.01 -0.129 -0.085 -0.271 -0.171 c -0.144 -0.085 -0.446 -0.261 -0.672 -0.398 c -0.226 -0.131 -0.419 -0.243 -0.43 -0.243 c -0.018 0 -0.449 0.796 -0.913 1.689 c -0.11 0.211 -0.177 0.321 -0.198 0.317 c -0.018 -0.003 -0.268 -0.455 -0.556 -1.01 c -0.298 -0.57 -0.536 -1 -0.552 -1 m -0.001 0.004" transform="matrix(3.543307,0,0,3.543307,0,0)" stroke-opacity="1" fill="#000" fill-rule="nonzero" stroke="#f9f9f9" stroke-linejoin="miter" fill-opacity="1" stroke-linecap="butt" stroke-width="0.141" stroke-miterlimit="4"/></g></g></g></g></g><g><g clip-path="url(#clipPath-665300815)"><!-- color: #c00033 --><g><path d="m 5.664 3.175 c -0.032 0 -1.3 0.751 -1.346 0.799 c -0.026 0.024 -0.021 0.045 0.04 0.146 c 0.668 1.101 1.113 1.861 1.098 1.874 c -0.011 0.009 -0.413 0.007 -0.895 -0.01 c -0.481 -0.015 -0.987 -0.028 -1.122 -0.029 l -0.247 -0.001 l -0.011 0.804 c -0.01 0.472 -0.008 0.812 0.007 0.825 c 0.018 0.021 1.423 -0.011 2 -0.043 c 0.201 -0.011 0.244 -0.011 0.252 0.018 c 0.007 0.018 -0.085 0.191 -0.209 0.402 c -0.121 0.204 -0.38 0.636 -0.579 0.968 c -0.197 0.329 -0.353 0.609 -0.348 0.623 c 0.014 0.034 1.296 0.787 1.348 0.787 c 0.04 0.001 0.332 -0.527 0.999 -1.811 c 0.051 -0.096 0.106 -0.175 0.122 -0.175 c 0.019 0 0.216 0.353 0.506 0.908 c 0.601 1.147 0.584 1.116 0.594 1.116 c 0.004 0 0.148 -0.082 0.313 -0.183 c 0.17 -0.099 0.474 -0.282 0.686 -0.407 c 0.207 -0.123 0.379 -0.234 0.379 -0.245 c 0 -0.011 -0.202 -0.355 -0.442 -0.757 c -0.246 -0.406 -0.507 -0.846 -0.586 -0.978 c -0.079 -0.134 -0.136 -0.249 -0.126 -0.26 c 0.01 -0.011 0.503 -0.004 1.126 0.014 c 0.611 0.018 1.117 0.023 1.127 0.013 c 0.023 -0.022 0.036 -1.615 0.013 -1.627 c -0.01 -0.009 -0.474 0.001 -1.029 0.021 c -1.208 0.039 -1.235 0.04 -1.235 0.01 c 0 -0.013 0.194 -0.345 0.431 -0.74 c 0.707 -1.174 0.742 -1.236 0.732 -1.25 c -0.007 -0.01 -0.129 -0.085 -0.271 -0.171 c -0.144 -0.085 -0.446 -0.261 -0.672 -0.398 c -0.226 -0.131 -0.419 -0.243 -0.43 -0.243 c -0.018 0 -0.449 0.796 -0.913 1.689 c -0.11 0.211 -0.177 0.321 -0.198 0.317 c -0.018 -0.003 -0.268 -0.455 -0.556 -1.01 c -0.298 -0.57 -0.536 -1 -0.552 -1 m -0.001 0.004" transform="matrix(3.543307,0,0,3.543307,0,0)" stroke-opacity="1" fill="#f9f9f9" fill-rule="nonzero" stroke="#f9f9f9" stroke-linejoin="miter" fill-opacity="1" stroke-linecap="butt" stroke-width="0.141" stroke-miterlimit="4"/></g></g></g><g><path d="m 40.03 7.531 c 3.712 4.084 5.969 9.514 5.969 15.469 0 12.703 -10.297 23 -23 23 c -5.954 0 -11.384 -2.256 -15.469 -5.969 4.178 4.291 10.01 6.969 16.469 6.969 c 12.703 0 23 -10.298 23 -23 0 -6.462 -2.677 -12.291 -6.969 -16.469 z" opacity="0.1"/></g></svg>

<?xml version="1.0" encoding="UTF-8" standalone="no"?>
<svg
   xmlns:dc="http://purl.org/dc/elements/1.1/"
   xmlns:cc="http://creativecommons.org/ns#"
   xmlns:rdf="http://www.w3.org/1999/02/22-rdf-syntax-ns#"
   xmlns:svg="http://www.w3.org/2000/svg"
   xmlns="http://www.w3.org/2000/svg"
   xmlns:sodipodi="http://sodipodi.sourceforge.net/DTD/sodipodi-0.dtd"
   xmlns:inkscape="http://www.inkscape.org/namespaces/inkscape"
   viewBox="0 0 48 48"
   id="svg2"
   version="1.1"
   inkscape:version="0.48.4 r9939"
   width="100%"
   height="100%"
   sodipodi:docname="lastpass.svg">
  <metadata
     id="metadata61">
    <rdf:RDF>
      <cc:Work
         rdf:about="">
        <dc:format>image/svg+xml</dc:format>
        <dc:type
           rdf:resource="http://purl.org/dc/dcmitype/StillImage" />
      </cc:Work>
    </rdf:RDF>
  </metadata>
  <sodipodi:namedview
     pagecolor="#ffffff"
     bordercolor="#666666"
     borderopacity="1"
     objecttolerance="10"
     gridtolerance="10"
     guidetolerance="10"
     inkscape:pageopacity="0"
     inkscape:pageshadow="2"
     inkscape:window-width="1375"
     inkscape:window-height="876"
     id="namedview59"
     showgrid="false"
     inkscape:zoom="4.9166667"
     inkscape:cx="-12"
     inkscape:cy="24"
     inkscape:window-x="65"
     inkscape:window-y="24"
     inkscape:window-maximized="1"
     inkscape:current-layer="svg2" />
  <defs
     id="defs4">
    <linearGradient
       id="linearGradient3764"
       x1="1"
       x2="47"
       gradientUnits="userSpaceOnUse"
       gradientTransform="matrix(0,-1,1,0,-1.5e-6,47.999998)">
      <stop
         stop-color="#ac002d"
         stop-opacity="1"
         id="stop7" />
      <stop
         offset="1"
         stop-color="#c00033"
         stop-opacity="1"
         id="stop9" />
    </linearGradient>
    <clipPath
       id="clipPath-651467254">
      <g
         transform="translate(0,-1004.3622)"
         id="g12">
        <path
           d="m -24 13 c 0 1.105 -0.672 2 -1.5 2 -0.828 0 -1.5 -0.895 -1.5 -2 0 -1.105 0.672 -2 1.5 -2 0.828 0 1.5 0.895 1.5 2 z"
           transform="matrix(15.333333,0,0,11.5,414.99999,878.8622)"
           fill="#1890d0"
           id="path14" />
      </g>
    </clipPath>
    <clipPath
       id="clipPath-665300815">
      <g
         transform="translate(0,-1004.3622)"
         id="g17">
        <path
           d="m -24 13 c 0 1.105 -0.672 2 -1.5 2 -0.828 0 -1.5 -0.895 -1.5 -2 0 -1.105 0.672 -2 1.5 -2 0.828 0 1.5 0.895 1.5 2 z"
           transform="matrix(15.333333,0,0,11.5,414.99999,878.8622)"
           fill="#1890d0"
           id="path19" />
      </g>
    </clipPath>
    <linearGradient
       id="linearGradient3764-6"
       x1="1"
       x2="47"
       gradientUnits="userSpaceOnUse"
       gradientTransform="matrix(0,-1,1,0,-1.5e-6,47.999998)">
      <stop
         stop-color="#b5945b"
         stop-opacity="1"
         id="stop7-6" />
      <stop
         offset="1"
         stop-color="#bb9e69"
         stop-opacity="1"
         id="stop9-0" />
    </linearGradient>
    <clipPath
       id="clipPath-899834956">
      <g
         transform="translate(0,-1004.3622)"
         id="g12-7">
        <path
           d="m -24 13 c 0 1.105 -0.672 2 -1.5 2 -0.828 0 -1.5 -0.895 -1.5 -2 0 -1.105 0.672 -2 1.5 -2 0.828 0 1.5 0.895 1.5 2 z"
           transform="matrix(15.333333,0,0,11.5,414.99999,878.8622)"
           fill="#1890d0"
           id="path14-3" />
      </g>
    </clipPath>
    <clipPath
       id="clipPath-909443126">
      <g
         transform="translate(0,-1004.3622)"
         id="g17-8">
        <path
           d="m -24 13 c 0 1.105 -0.672 2 -1.5 2 -0.828 0 -1.5 -0.895 -1.5 -2 0 -1.105 0.672 -2 1.5 -2 0.828 0 1.5 0.895 1.5 2 z"
           transform="matrix(15.333333,0,0,11.5,414.99999,878.8622)"
           fill="#1890d0"
           id="path19-7" />
      </g>
    </clipPath>
    <clipPath
       id="clipPath-909443126-7">
      <g
         transform="translate(0,-1004.3622)"
         id="g17-2">
        <path
           style="fill:#1890d0"
           inkscape:connector-curvature="0"
           d="m -24,13 c 0,1.105 -0.672,2 -1.5,2 -0.828,0 -1.5,-0.895 -1.5,-2 0,-1.105 0.672,-2 1.5,-2 0.828,0 1.5,0.895 1.5,2 z"
           transform="matrix(15.333333,0,0,11.5,414.99999,878.8622)"
           id="path19-3" />
      </g>
    </clipPath>
    <linearGradient
       id="linearGradient3759">
      <stop
         id="stop3761"
         offset="0"
         style="stop-color:#a75e15;stop-opacity:1;" />
      <stop
         id="stop3763"
         offset="1"
         style="stop-color:#ffffff;stop-opacity:0;" />
    </linearGradient>
    <linearGradient
       id="linearGradient3777">
      <stop
         id="stop3779"
         offset="0"
         style="stop-color:#e0dd00;stop-opacity:1;" />
      <stop
         id="stop3781"
         offset="1"
         style="stop-color:#000000;stop-opacity:0;" />
    </linearGradient>
    <clipPath
       id="clipPath-665300815-5">
      <g
         transform="translate(0,-1004.3622)"
         id="g17-0">
        <path
           style="fill:#1890d0"
           inkscape:connector-curvature="0"
           d="m -24,13 c 0,1.105 -0.672,2 -1.5,2 -0.828,0 -1.5,-0.895 -1.5,-2 0,-1.105 0.672,-2 1.5,-2 0.828,0 1.5,0.895 1.5,2 z"
           transform="matrix(15.333333,0,0,11.5,414.99999,878.8622)"
           id="path19-79" />
      </g>
    </clipPath>
  </defs>
  <g
     id="g33" />
  <g
     id="g3085">
    <g
       inkscape:label="shadows"
       id="layer2">
      <rect
         ry="13.03658"
         rx="13.03658"
         y="1"
         x="1"
         height="46"
         width="46"
         id="rect3007"
         style="opacity:0.1;fill:#000000;fill-opacity:1;fill-rule:nonzero;stroke:none" />
      <rect
         style="opacity:0.1;fill:#000000;fill-opacity:1;fill-rule:nonzero;stroke:none"
         id="rect3011"
         width="47"
         height="47"
         x="0.5"
         y="0.5"
         rx="13.319984"
         ry="13.319984" />
      <rect
         style="opacity:0.1;fill:#000000;fill-opacity:1;fill-rule:nonzero;stroke:none"
         id="rect3013"
         width="46.5"
         height="46.5"
         x="0.75"
         y="0.75"
         rx="13.178282"
         ry="13.178282" />
    </g>
    <g
       style="display:inline"
       inkscape:label="background-color"
       id="layer1">
      <rect
         transform="matrix(0,-1,1,0,0,0)"
         ry="12.753176"
         rx="12.753176"
         y="1.5"
         x="-46.5"
         height="45"
         width="45"
         id="rect2988"
         style="fill:#ac002d;fill-opacity:1;fill-rule:nonzero;stroke:none" />
    </g>
  </g>
  <g
     transform="translate(-0.00569672,-7.343991e-4)"
     id="g47-2">
    <g
       clip-path="url(#clipPath-665300815-5)"
       id="g49-6">
      <!-- color: #c00033 -->
      <g
         id="g51-3">
        <path
           style="fill:#f9f9f9;fill-opacity:1;fill-rule:nonzero;stroke:#f9f9f9;stroke-width:0.141;stroke-linecap:butt;stroke-linejoin:miter;stroke-miterlimit:4;stroke-opacity:1"
           inkscape:connector-curvature="0"
           d="m 5.664,3.175 c -0.032,0 -1.3,0.751 -1.346,0.799 C 4.292,3.998 4.297,4.019 4.358,4.12 5.026,5.221 5.471,5.981 5.456,5.994 5.445,6.003 5.043,6.001 4.561,5.984 4.08,5.969 3.574,5.956 3.439,5.955 L 3.192,5.954 3.181,6.758 C 3.171,7.23 3.173,7.57 3.188,7.583 3.206,7.604 4.611,7.572 5.188,7.54 5.389,7.529 5.432,7.529 5.44,7.558 5.447,7.576 5.355,7.749 5.231,7.96 5.11,8.164 4.851,8.596 4.652,8.928 4.455,9.257 4.299,9.537 4.304,9.551 4.318,9.585 5.6,10.338 5.652,10.338 5.692,10.339 5.984,9.811 6.651,8.527 6.702,8.431 6.757,8.352 6.773,8.352 c 0.019,0 0.216,0.353 0.506,0.908 0.601,1.147 0.584,1.116 0.594,1.116 0.004,0 0.148,-0.082 0.313,-0.183 C 8.356,10.094 8.66,9.911 8.872,9.786 9.079,9.663 9.251,9.552 9.251,9.541 9.251,9.53 9.049,9.186 8.809,8.784 8.563,8.378 8.302,7.938 8.223,7.806 8.144,7.672 8.087,7.557 8.097,7.546 8.107,7.535 8.6,7.542 9.223,7.56 9.834,7.578 10.34,7.583 10.35,7.573 10.373,7.551 10.386,5.958 10.363,5.946 10.353,5.937 9.889,5.947 9.334,5.967 8.126,6.006 8.099,6.007 8.099,5.977 8.099,5.964 8.293,5.632 8.53,5.237 9.237,4.063 9.272,4.001 9.262,3.987 9.255,3.977 9.133,3.902 8.991,3.816 8.847,3.731 8.545,3.555 8.319,3.418 8.093,3.287 7.9,3.175 7.889,3.175 7.871,3.175 7.44,3.971 6.976,4.864 6.866,5.075 6.799,5.185 6.778,5.181 6.76,5.178 6.51,4.726 6.222,4.171 5.924,3.601 5.686,3.171 5.67,3.171 M 5.669,3.175"
           transform="scale(3.543307,3.543307)"
           stroke-miterlimit="4"
           id="path53-2" />
      </g>
    </g>
  </g>
</svg>
